static/assets/head_icons_png/man/bizi/1007934.svg

<svg xmlns="http://www.w3.org/2000/svg" width="5" height="9"><g transform="translate(-68.3 -30.4)"><path d="M70.45 38.05l.55-.4.4-.1-.2.05.3-.05.15.1v.05l-.6.2q-.25 0-.6.3l-.15.1h-.25l-.3-.1v-.05l.1.05h.35l.2-.05.05-.1m-.75.15l-.05-.05h.05v.05m-.5-.45l.45.4-.2-.15-.05-.05-.25-.05-.6-.15v-.05l.5-.05.15.1" fill="#823909"/><radialGradient id="a" gradientUnits="userSpaceOnUse" gradientTransform="matrix(.00183 .00006 -.00006 .00198 70.15 39.2)" spreadMethod="pad" cx="0" cy="0" r="819.2" fx="0" fy="0"><stop offset="0" stop-color="#f39b61"/><stop offset="1" stop-color="#f8be98"/></radialGradient><path d="M72.05 35.85l-.75-.05-.1-.65.05.75-.05-.5q-.15-1.05.05-2.8.2-1.75.45-2.1l.05-.1h.4q-.4 1.8-.3 3.3l.1 1.55v.1l.1.5" fill="url(#a)"/><radialGradient id="b" gradientUnits="userSpaceOnUse" gradientTransform="matrix(.00183 .00006 -.00006 .00198 70.2 38.9)" spreadMethod="pad" cx="0" cy="0" r="819.2" fx="0" fy="0"><stop offset="0" stop-color="#f39b61"/><stop offset="1" stop-color="#f8be98"/></radialGradient><path d="M69.75 38.15v.05l.3.1h.25l.15-.1q.35-.3.6-.3l.6-.2v-.05l-.15-.1q.85-.25-.1-1.25l-.1-.5.75.05-.1-.5.05.05.15.85.15.75v.1l-.35.7-1 .65-.5.25-.9-.1-1-.65-.15-.05v-.05q-.35-.35.5-.5l.2.25.75.6-.1-.05m.65 0l-.2.05.2-.15h.05l-.05.1m-.7 0h-.05l.05.05v-.05m-.65-.5l-.5.05v.05l.6.15.25.05.05.05.2.15-.45-.4-.15-.1" fill="url(#b)"/><radialGradient id="c" gradientUnits="userSpaceOnUse" gradientTransform="matrix(.0007 .00006 -.00003 .00291 70.05 33.25)" spreadMethod="pad" cx="0" cy="0" r="819.2" fx="0" fy="0"><stop offset=".314" stop-color="#fff" stop-opacity=".431"/><stop offset="1" stop-color="#fff" stop-opacity="0"/></radialGradient><path d="M70.4 31.65l.1 1.65-.15 1.7-.05.3-.05.05-.2.3-.2-.35v-.05l-.1-.3-.1-1.7q0-1.05.15-1.7.1-.7.3-.65.15 0 .3.75" fill="url(#c)"/><radialGradient id="d" gradientUnits="userSpaceOnUse" gradientTransform="matrix(.00053 .00003 -.00003 .00058 69.95 36.4)" spreadMethod="pad" cx="0" cy="0" r="819.2" fx="0" fy="0"><stop offset=".314" stop-color="#fff" stop-opacity=".431"/><stop offset="1" stop-color="#fff" stop-opacity="0"/></radialGradient><path d="M69.5 36.4l.15-.35.3-.1.3.15.1.35-.15.3-.3.15-.3-.2-.1-.3" fill="url(#d)"/><radialGradient id="e" gradientUnits="userSpaceOnUse" gradientTransform="matrix(.00143 -.00023 .00037 .00273 71.7 33.55)" spreadMethod="pad" cx="0" cy="0" r="819.2" fx="0" fy="0"><stop offset=".337" stop-color="#f9c29f"/><stop offset="1" stop-color="#fedec1" stop-opacity="0"/></radialGradient><path d="M73.25 34.05l-.85.75-.5.65v-.05l-.2-1.65.15-2.25v.3-.3q.5 1.55 1 1.85l.3.2.1.5" fill="url(#e)"/></g></svg>

<?xml version="1.0" encoding="utf-8"?>
<svg version="1.1" id="Layer_1"
xmlns="http://www.w3.org/2000/svg"
xmlns:xlink="http://www.w3.org/1999/xlink"
xmlns:author="http://www.sothink.com"
width="5px" height="9px"
xml:space="preserve">
<g id="452" transform="matrix(1, 0, 0, 1, -68.3, -30.4)">
<path style="fill:#823909;fill-opacity:1" d="M70.45,38.05L71 37.65L71.4 37.55L71.2 37.6L71.5 37.55L71.65 37.65L71.65 37.7L71.05 37.9Q70.8 37.9 70.45 38.2L70.3 38.3L70.05 38.3L69.75 38.2L69.75 38.15L69.85 38.2L69.95 38.2L70.2 38.2L70.4 38.15L70.45 38.05M69.7,38.2L69.65 38.15L69.7 38.15L69.7 38.2M69.2,37.75L69.65 38.15L69.45 38L69.4 37.95L69.15 37.9L68.55 37.75L68.55 37.7L69.05 37.65L69.2 37.75" />
<radialGradient
id="RadialGradID_3984" gradientUnits="userSpaceOnUse" gradientTransform="matrix(0.00183105, 6.10352e-005, -6.10352e-005, 0.00198364, 70.15, 39.2)" spreadMethod ="pad" cx="0" cy="0" r="819.2" fx="0" fy="0" >
<stop  offset="0"  style="stop-color:#F39B61;stop-opacity:1" />
<stop  offset="1"  style="stop-color:#F8BE98;stop-opacity:1" />
</radialGradient>
<path style="fill:url(#RadialGradID_3984) " d="M72.05,35.85L71.3 35.8L71.2 35.15L71.25 35.9L71.2 35.4Q71.05 34.35 71.25 32.6Q71.45 30.85 71.7 30.5L71.75 30.4L72.15 30.4Q71.75 32.2 71.85 33.7L71.95 35.25L71.95 35.35L72.05 35.85" />
<radialGradient
id="RadialGradID_3985" gradientUnits="userSpaceOnUse" gradientTransform="matrix(0.00183105, 6.10352e-005, -6.10352e-005, 0.00198364, 70.2, 38.9)" spreadMethod ="pad" cx="0" cy="0" r="819.2" fx="0" fy="0" >
<stop  offset="0"  style="stop-color:#F39B61;stop-opacity:1" />
<stop  offset="1"  style="stop-color:#F8BE98;stop-opacity:1" />
</radialGradient>
<path style="fill:url(#RadialGradID_3985) " d="M69.75,38.15L69.75 38.2L70.05 38.3L70.3 38.3L70.45 38.2Q70.8 37.9 71.05 37.9L71.65 37.7L71.65 37.65L71.5 37.55Q72.35 37.3 71.4 36.3L71.3 35.8L72.05 35.85L71.95 35.35L72 35.4L72.15 36.25L72.3 37L72.3 37.1L71.95 37.8L70.95 38.45L70.45 38.7L69.55 38.6L68.55 37.95L68.4 37.9L68.4 37.85Q68.05 37.5 68.9 37.35L69.1 37.6L69.85 38.2L69.75 38.15M70.4,38.15L70.2 38.2L70.4 38.05L70.45 38.05L70.4 38.15M69.7,38.15L69.65 38.15L69.7 38.2L69.7 38.15M69.05,37.65L68.55 37.7L68.55 37.75L69.15 37.9L69.4 37.95L69.45 38L69.65 38.15L69.2 37.75L69.05 37.65" />
<radialGradient
id="RadialGradID_3986" gradientUnits="userSpaceOnUse" gradientTransform="matrix(0.000701904, 6.10352e-005, -3.05176e-005, 0.00291443, 70.05, 33.25)" spreadMethod ="pad" cx="0" cy="0" r="819.2" fx="0" fy="0" >
<stop  offset="0.313725"  style="stop-color:#FFFFFF;stop-opacity:0.431373" />
<stop  offset="1"  style="stop-color:#FFFFFF;stop-opacity:0" />
</radialGradient>
<path style="fill:url(#RadialGradID_3986) " d="M70.4,31.65L70.5 33.3L70.35 35L70.3 35.3L70.25 35.35L70.05 35.65L69.85 35.3L69.85 35.25L69.75 34.95L69.65 33.25Q69.65 32.2 69.8 31.55Q69.9 30.85 70.1 30.9Q70.25 30.9 70.4 31.65" />
<radialGradient
id="RadialGradID_3987" gradientUnits="userSpaceOnUse" gradientTransform="matrix(0.000534058, 3.05176e-005, -3.05176e-005, 0.000579834, 69.95, 36.4)" spreadMethod ="pad" cx="0" cy="0" r="819.2" fx="0" fy="0" >
<stop  offset="0.313725"  style="stop-color:#FFFFFF;stop-opacity:0.431373" />
<stop  offset="1"  style="stop-color:#FFFFFF;stop-opacity:0" />
</radialGradient>
<path style="fill:url(#RadialGradID_3987) " d="M69.5,36.4L69.65 36.05L69.95 35.95L70.25 36.1L70.35 36.45L70.2 36.75L69.9 36.9L69.6 36.7L69.5 36.4" />
<radialGradient
id="RadialGradID_3988" gradientUnits="userSpaceOnUse" gradientTransform="matrix(0.00143433, -0.000228882, 0.000366211, 0.00273132, 71.7, 33.55)" spreadMethod ="pad" cx="0" cy="0" r="819.2" fx="0" fy="0" >
<stop  offset="0.337255"  style="stop-color:#F9C29F;stop-opacity:1" />
<stop  offset="1"  style="stop-color:#FEDEC1;stop-opacity:0" />
</radialGradient>
<path style="fill:url(#RadialGradID_3988) " d="M73.25,34.05L72.4 34.8L71.9 35.45L71.9 35.4L71.7 33.75L71.85 31.5L71.85 31.8L71.85 31.5Q72.35 33.05 72.85 33.35L73.15 33.55L73.25 34.05" />
</g>
</svg>
